!!!!SEGMENT: chor280.krn
!!!COM: Bach, Johann Sebastian
!!!CDT: 1685/02/21/-1750/07/28/
!!!OTL@@DE: Eins ist not, ach Herr, dies eine
!!!SCT: BWV 304
!!!PC#: 280
!!!AGN: chorale
**kern	**kern	**kern	**kern
*ICvox	*ICvox	*ICvox	*ICvox
*Ibass	*Itenor	*Ialto	*Isoprn
*I"Bass	*I"Tenor	*I"Alto	*I"Soprano
*clefF4	*clefGv2	*clefG2	*clefG2
*k[f#c#]	*k[f#c#]	*k[f#c#]	*k[f#c#]
*D:	*D:	*D:	*D:
*M4/4	*M4/4	*M4/4	*M4/4
*met(c)	*met(c)	*met(c)	*met(c)
*MM100	*MM100	*MM100	*MM100
=9||	=9||	=9||	=9||
*M3/4	*M3/4	*M3/4	*M3/4
4D	8F#L	4A	8dL
.	8GJ	.	8eJ
=10	=10	=10	=10
8DL	4A	4d	4f#
8C#J	.	.	.
8DL	4A	4d	4f#
8EJ	.	.	.
8F#L	8AL	4d	4f#
8GJ	8BJ	.	.
=11	=11	=11	=11
4A	8c#L	8c#L	4e
.	8dJ	8BJ	.
4AA	8eL	8c#L	4e
.	8dJ	8dJ	.
4A	4c#	4e	8eL
.	.	.	8f#J
=12	=12	=12	=12
8EL	4B	4e	4g
8D#J	.	.	.
8EL	4B	4e	4g
8F#J	.	.	.
8GL	8BL	4e	8gL
8AJ	8c#J	.	8f#J
=13	=13	=13	=13
4B	8dL	8dL	4f#
.	8eJ	8c#J	.
4BB	8f#L	8dL	4f#
.	8eJ	8eJ	.
8BL	8dL	4f#	4f#
8AJ	8c#J	.	.
=14	=14	=14	=14
8GL	8BL	4.g	4.b
8F#J	8AJ	.	.
4E	8GL	.	.
.	8AJ	8f#	8a
8EL	4B	4e	4g
8DJ	.	.	.
=15	=15	=15	=15
8C#L	4A	8eL	4.a
8BBJ	.	8dJ	.
4AA	4A	4c#	.
.	.	.	8g
8DL	4A	4d	4f#
8C#J	.	.	.
=16	=16	=16	=16
8BBL	8GL	4d	4g
8AAJ	8AJ	.	.
4GG	4B	4d	4f#
4AA	4E	4c#	4e
=17	=17	=17	=17
4D	4F#	4A	4d
4D;	4F#;	4A;	4d;
*-	*-	*-	*-